X:55
T: Easy Club
D: "Barking Mad" - 4 Men and a Dog
Z: B.Black
M: 4/4
R: reel
L: 1/8
K: G
D | GDGB AGAc | Bcde dcBd | edef gedB | cABG AcBA |
GDGB AGAc | Bcde dcBd | edef gedc |1 BcAB G3 :|2\
BcAB GABd ||
e2 ed efge | d2 ge dBBd | e2 ef gede | gedB AcBA |
GDGB AGAc | Bcde dcBd | edef gedc |1 BcAB G3 d :|2\
BcAB GABd ||
W:
P: alternate setting in A
K: A
E | AEAc BABd | cdef edce | fefg afec | dBcA BdcB |
AEAc BABd | cdef edce | fefg afed |1 cdBc A3 :|2\
cdBc ABce ||
f2 fe fgaf | e2 af ecce | f2 fg afef | afec BdcB |
AEAc BABd | cdef edce | fefg afed |1 cdBc A3 :|2\
cdBc ABce ||
